packages/dnb-ui-lib/assets/icons/question_medium.svg

<svg width="24" height="24" viewBox="0 0 24 24" fill="none" xmlns="http://www.w3.org/2000/svg">
<path fill-rule="evenodd" clip-rule="evenodd" d="M8.5 7.42848C8.50037 5.47652 10.2348 3.87483 12.1655 4.00832C14.1128 4.14296 15.5914 5.98343 15.3254 7.90039C15.1514 9.1544 14.2656 10.24 13.072 10.662C12.4944 10.8662 12.0603 11.2041 11.7553 11.6382C11.458 12.0612 11.309 12.5388 11.2323 12.9938C11.1558 13.4475 11.1458 13.9139 11.1516 14.3359C11.1546 14.553 11.1606 14.7361 11.1662 14.9076L11.1662 14.9076C11.1729 15.1091 11.179 15.2946 11.179 15.5002C11.179 15.9144 11.5148 16.2502 11.929 16.2502C12.3432 16.2502 12.679 15.9144 12.679 15.5002C12.679 15.299 12.6714 15.0501 12.6641 14.8097L12.6641 14.8096V14.8096C12.6587 14.6329 12.6534 14.4607 12.6514 14.3153C12.6461 13.9223 12.6575 13.5626 12.7114 13.2431C12.7651 12.9248 12.8553 12.6818 12.9826 12.5005C13.1022 12.3303 13.278 12.1802 13.572 12.0762C15.2941 11.4674 16.5602 9.9158 16.8112 8.10654C17.1959 5.33395 15.0884 2.70684 12.269 2.5119C9.47647 2.31882 7.00054 4.60197 7 7.42819C6.99992 7.84241 7.33564 8.17826 7.74986 8.17834C8.16407 8.17842 8.49992 7.84269 8.5 7.42848ZM12 21.5C12.8284 21.5 13.5 20.8284 13.5 20C13.5 19.1716 12.8284 18.5 12 18.5C11.1716 18.5 10.5 19.1716 10.5 20C10.5 20.8284 11.1716 21.5 12 21.5Z" fill="black"/>
</svg>

<svg width="24" height="24" viewBox="0 0 24 24" fill="none" xmlns="http://www.w3.org/2000/svg"><path fill-rule="evenodd" clip-rule="evenodd" d="M8.5 7.428c0-1.951 1.735-3.553 3.665-3.42 1.948.135 3.426 1.975 3.16 3.892a3.465 3.465 0 01-2.253 2.762 2.642 2.642 0 00-1.317.976c-.297.423-.446.9-.523 1.356a7.52 7.52 0 00-.08 1.342c.003.217.009.4.014.572.007.201.013.387.013.592a.75.75 0 001.5 0c0-.201-.008-.45-.015-.69l-.013-.495a6.078 6.078 0 01.06-1.072c.054-.318.144-.561.272-.742.12-.17.295-.32.589-.425a4.964 4.964 0 003.24-3.97c.384-2.772-1.724-5.4-4.543-5.594C9.476 2.319 7.001 4.602 7 7.428a.75.75 0 101.5 0zM12 21.5a1.5 1.5 0 100-3 1.5 1.5 0 000 3z" fill="#000"/></svg>
